X: 1
T:Capital Ship
% R: jig
M: C|
L: 1/4
Q: 1/2=100
K: Bb
 f | bbab | gfdB | ccBA | B3 f | gabg | c'aff | bbag | f3 f |
 bbab | gfdf | gfed | cde f | ffgg | fdBB | ccBA | B2 f2 | 
 B3/2B/2Bd | f5/2f | g3/2f/2ga | b5/2 f | bbab | gfdf | gfed | cde f |
 B3/2B/2Bd | f5/2f | g3/2f/2ga | b5/2 f | bbab | gfdB | ccBA | B5/2 |]
